X: 1551
T: Hunter's River Schottische
B: australian traditional tunes wiki
M:4/4
R: Schottische
Q: 1/4=100
K:D
V:1 
"D"d>c "G"B>c "D"d>ef2|d>c "G"B>d "A7"c2A2|"D"d>c "G"B>A "D"d>e f>g|a>b "G"a>f "A7"e2"D"d2|
"D"d>e f<d "G"g>d "D"f>d|d>e f<d"A7"e2a2|"D"d>e f<d "G"g>e "D"f<g|"A7"a>b a>fe2"D"d2||
% abcbook-tune_id 6342d53a0d034bbfdb6685bf


% abcbook-boost 0
% abcbook-tablature 
% abcbook-transpose 
% abcbook-lastupdated 1665324370612
% abcbook-soundfonts 
% abcbook-repeats 1
% NFF Book 2009

